X: 21
T:Oranje Bven  ST.21
M:4/4
L:1/8
Q:100
C:"- Sung by Mr Braham."
S:Annonymous Staffordshire MS, Early 19thC.
R:Air
O:England
A:Staffordshire
Z:vmp.Tim Willets
K:D
A2|d3cd2e2|f2e2d2ze|f2edc2d2|e3dc2ze|e2f2e2d2|(ca2)zz2^gf|!
e3fe2c|A4z2A2|e3g fedc|d2e2f2zA|g3e agfe|f2g2a2zA|!
a3g fedc|B6g2|f2ede2c2|d4z2A2|f3ed2c2|B4z2f2|!
g3fe2d2|c4z2c2|d3ef2d2|(B2"pa"g4)g>f|e4a4|d4z4||!
d4B4|e2e>dc2A2|af dg "pa"b2g>f|e4a4|d8|]
